public/svg/market.svg

<svg height="99" viewBox="0 0 97 99" width="97" xmlns="http://www.w3.org/2000/svg" xmlns:xlink="http://www.w3.org/1999/xlink"><linearGradient id="a" x1="48.289707%" x2="51.219395%" y1=".379609%" y2="99.598359%"><stop offset="0" stop-color="#4dbbed"/><stop offset="1" stop-color="#5c6ddd"/></linearGradient><path d="m94.6507813 26.3260982c1.515625-1.515625 2.3492187-3.5617187 2.3492187-5.702539 0-1.3640625-.3978516-2.6902344-1.1367188-3.8458985l-8.0517578-12.67441403c-1.7808593-2.80390625-4.85-4.49003906-8.1654297-4.50898438h-62.2921875c-3.2964843 0-6.3845703 1.70507813-8.16542964 4.49003907l-8.05175781 12.69335934c-.73886719 1.1556641-1.13671875 2.481836-1.13671875 3.8458985 0 2.1408203.85253906 4.2058593 2.36816406 5.7214843.71992188.7009766 1.55351563 1.269336 2.48183594 1.6671875v33.0216797c-2.36816406 0-4.37636719 1.6861328-4.77421875 4.0164063-.39785156 2.3302734.92832031 4.6037109 3.16386719 5.3804687v16.7666016c-2.21660156.7767578-3.56171875 3.0501953-3.16386719 5.3804687.39785156 2.3302735 2.40605469 4.0164063 4.77421875 4.0164063h87.3c2.3681641 0 4.3763672-1.6861328 4.7742188-4.0164063.3978515-2.3302734-.9283204-4.6037109-3.1638672-5.3804687v-16.7666016c2.2166015-.7767578 3.5617187-3.0501953 3.1638672-5.3804687-.3978516-2.3302735-2.4250001-4.0164063-4.7742188-4.0164063v-33.040625c.9283203-.3978515 1.7619141-.9662109 2.5007813-1.6671875zm-2.2923829-2.2923828c-.909375.909375-2.1408203 1.4208985-3.4480468 1.4208985h-4.85c-2.6712891 0-4.85-2.178711-4.85-4.85h14.55c0 1.2882812-.4925782 2.5197265-1.4019532 3.4291015zm-16.1603515 37.0001953 1.3830078-11.1208984c.0568359-.4546875-.0947266-.9283203-.3978516-1.2693359-.303125-.3410157-.7388672-.5494141-1.2125-.5494141h-9.7c-.4546875 0-.909375.2083984-1.2125.5494141-.303125.3410156-.4546875.8146484-.3978515 1.2693359l1.3830078 11.1208984h-12.7123047v-6.4603515c0-1.7808594-1.4398438-3.2396485-3.2396484-3.2396485h-17.7896485v-6.4603515h1.6103516c1.7808594 0 3.2396484-1.4398438 3.2396484-3.2396485v-3.2396484c0-1.7808594-1.4398437-3.2396484-3.2396484-3.2396484h-12.9396485c-1.7808593 0-3.2396484 1.4398437-3.2396484 3.2396484v3.2396484c0 1.7808594 1.4398437 3.2396485 3.2396484 3.2396485h1.6103516v6.4603515h-1.6103516c-1.7808593 0-3.2396484 1.4398438-3.2396484 3.2396485v6.4603515h-3.1828125v-32.5101562c1.9513672-.4167969 3.6753906-1.515625 4.85-3.1259766 1.515625 2.0650391 3.9216797 3.2775391 6.4603516 3.2775391h6.4603515c2.5576172 0 4.9447266-1.2314453 6.4603516-3.2775391 1.515625 2.0650391 3.9216797 3.2775391 6.4603516 3.2775391h6.4603515c2.5576172 0 4.9447266-1.2314453 6.4603516-3.2775391 1.515625 2.0650391 3.9216797 3.2775391 6.4603515 3.2775391h6.4603516c2.5576172 0 4.9447266-1.2314453 6.4603516-3.2775391 1.1746093 1.6103516 2.8986328 2.7091797 4.85 3.1259766v32.4912109h-6.1951172zm-8.0896485-9.7h6.0435547l-1.2125 9.7h-3.6185547zm-37.3980468-9.7h-9.7v-3.2396484h12.9396484v3.2396484zm-4.85 3.2207032h3.2396484v6.4603515h-3.2396484zm-1.6103516 9.7h25.8603516v6.4603515h-29.1v-6.4603515zm51.7396484-33.95c0 2.671289-2.1787109 4.85-4.85 4.85h-6.4603515c-2.6712891 0-4.85-2.178711-4.85-4.85zm-19.4 0c0 2.671289-2.1787109 4.85-4.85 4.85h-6.4603515c-2.6712891 0-4.85-2.178711-4.85-4.85zm-35.5792968 0h16.1603515c0 2.671289-2.1787109 4.85-4.85 4.85h-6.4603515c-2.6712891 0-4.85-2.1597657-4.85-4.85zm-9.0748047-14.77734379c1.1746094-1.85664063 3.2396484-2.99335938 5.4373047-2.99335938h62.2732422c2.2166015 0 4.2626953 1.13671875 5.4373046 2.99335938l7.3507813 11.55664059h-13.7353516l-2.8228515-7.0666015c-.3410157-.83359378-1.269336-1.23144534-2.1029297-.90937503-.8335938.34101563-1.2314453 1.26933593-.909375 2.10292973l2.3492187 5.8730468h-15.402539v-3.2396484c0-.8904297-.7199219-1.6103516-1.6103516-1.6103516s-1.6103516.7199219-1.6103516 1.6103516v3.2396484h-16.1603515v-3.2396484c0-.8904297-.7199219-1.6103516-1.6103516-1.6103516s-1.6103516.7199219-1.6103516 1.6103516v3.2396484h-15.4214843l2.3492187-5.8730468c.2083985-.5304688.1326172-1.1556641-.2273437-1.6103516-.359961-.4546875-.9283203-.68203125-1.4966797-.60625s-1.0609375.4546875-1.2693359 1.0041016l-2.8417969 7.0855468h-13.73535159zm-8.69589846 14.77734379h14.54999996c0 2.671289-2.1787109 4.85-4.85 4.85h-4.84999996c-1.28828125 0-2.51972656-.5115235-3.42910156-1.4208985s-1.42089844-2.1408203-1.42089844-3.4291015zm4.85 8.0896484h3.23964846v32.3396484h-3.23964846zm82.44999996 58.2h-84.07929684v-16.1603516h84.06035154v16.1603516zm1.6103516 6.4603516h-87.3c-.89042969 0-1.61035156-.7199219-1.61035156-1.6103516s.71992187-1.6103516 1.61035156-1.6103516h87.3c.8904297 0 1.6103516.7199219 1.6103516 1.6103516s-.7199219 1.6103516-1.6103516 1.6103516zm1.6103516-27.4707032c0 .8904297-.7199219 1.6103516-1.6103516 1.6103516h-87.3c-.89042969 0-1.61035156-.7199219-1.61035156-1.6103516s.71992187-1.6103515 1.61035156-1.6103515h87.3c.8904297-.0189453 1.6103516.7199218 1.6103516 1.6103515zm-4.85-4.85h-3.2396485v-32.3396484h3.2396485z" fill="url(#a)" transform="translate(0 1.405738)"/></svg>

<?xml version="1.0" encoding="UTF-8"?>
<svg width="97px" height="99px" viewBox="0 0 97 99" version="1.1" xmlns="http://www.w3.org/2000/svg" xmlns:xlink="http://www.w3.org/1999/xlink">
    <title>market</title>
    <defs>
        <linearGradient x1="48.289707%" y1="0.379609375%" x2="51.2193945%" y2="99.5983594%" id="linearGradient-1">
            <stop stop-color="#4DBBED" offset="0%"></stop>
            <stop stop-color="#5C6DDD" offset="100%"></stop>
        </linearGradient>
    </defs>
    <g id="Page-1" stroke="none" stroke-width="1" fill="none" fill-rule="evenodd">
        <g id="workers-desktop" transform="translate(-914.000000, -697.000000)" fill="url(#linearGradient-1)" fill-rule="nonzero">
            <g id="market" transform="translate(914.000000, 698.405738)">
                <path d="M94.6507813,26.3260982 C96.1664063,24.8104732 97,22.7643795 97,20.6235592 C97,19.2594967 96.6021484,17.9333248 95.8632812,16.7776607 L87.8115234,4.10324667 C86.0306641,1.29934042 82.9615234,-0.386792392 79.6460937,-0.405737705 L17.3539062,-0.405737705 C14.0574219,-0.405737705 10.9693359,1.29934042 9.18847656,4.08430136 L1.13671875,16.7776607 C0.397851563,17.9333248 0,19.2594967 0,20.6235592 C0,22.7643795 0.852539062,24.8294185 2.36816406,26.3450435 C3.08808594,27.0460201 3.92167969,27.6143795 4.85,28.012231 L4.85,61.0339107 C2.48183594,61.0339107 0.473632812,62.7200435 0.07578125,65.050317 C-0.322070312,67.3805904 1.00410156,69.6540279 3.23964844,70.4307857 L3.23964844,87.1973873 C1.02304688,87.9741451 -0.322070312,90.2475826 0.07578125,92.577856 C0.473632812,94.9081295 2.48183594,96.5942623 4.85,96.5942623 L92.15,96.5942623 C94.5181641,96.5942623 96.5263672,94.9081295 96.9242188,92.577856 C97.3220703,90.2475826 95.9958984,87.9741451 93.7603516,87.1973873 L93.7603516,70.4307857 C95.9769531,69.6540279 97.3220703,67.3805904 96.9242188,65.050317 C96.5263672,62.7200435 94.4992187,61.0339107 92.15,61.0339107 L92.15,27.9932857 C93.0783203,27.5954342 93.9119141,27.0270748 94.6507813,26.3260982 L94.6507813,26.3260982 Z M92.3583984,24.0337154 C91.4490234,24.9430904 90.2175781,25.4546139 88.9103516,25.4546139 L84.0603516,25.4546139 C81.3890625,25.4546139 79.2103516,23.2759029 79.2103516,20.6046139 L93.7603516,20.6046139 C93.7603516,21.8928951 93.2677734,23.1243404 92.3583984,24.0337154 Z M76.1980469,61.0339107 L77.5810547,49.9130123 C77.6378906,49.4583248 77.4863281,48.984692 77.1832031,48.6436764 C76.8800781,48.3026607 76.4443359,48.0942623 75.9707031,48.0942623 L66.2707031,48.0942623 C65.8160156,48.0942623 65.3613281,48.3026607 65.0582031,48.6436764 C64.7550781,48.984692 64.6035156,49.4583248 64.6603516,49.9130123 L66.0433594,61.0339107 L53.3310547,61.0339107 L53.3310547,54.5735592 C53.3310547,52.7926998 51.8912109,51.3339107 50.0914063,51.3339107 L32.3017578,51.3339107 L32.3017578,44.8735592 L33.9121094,44.8735592 C35.6929688,44.8735592 37.1517578,43.4337154 37.1517578,41.6339107 L37.1517578,38.3942623 C37.1517578,36.6134029 35.7119141,35.1546139 33.9121094,35.1546139 L20.9724609,35.1546139 C19.1916016,35.1546139 17.7328125,36.5944576 17.7328125,38.3942623 L17.7328125,41.6339107 C17.7328125,43.4147701 19.1726562,44.8735592 20.9724609,44.8735592 L22.5828125,44.8735592 L22.5828125,51.3339107 L20.9724609,51.3339107 C19.1916016,51.3339107 17.7328125,52.7737545 17.7328125,54.5735592 L17.7328125,61.0339107 L14.55,61.0339107 L14.55,28.5237545 C16.5013672,28.1069576 18.2253906,27.0081295 19.4,25.3977779 C20.915625,27.462817 23.3216797,28.675317 25.8603516,28.675317 L32.3207031,28.675317 C34.8783203,28.675317 37.2654297,27.4438717 38.7810547,25.3977779 C40.2966797,27.462817 42.7027344,28.675317 45.2414063,28.675317 L51.7017578,28.675317 C54.259375,28.675317 56.6464844,27.4438717 58.1621094,25.3977779 C59.6777344,27.462817 62.0837891,28.675317 64.6224609,28.675317 L71.0828125,28.675317 C73.6404297,28.675317 76.0275391,27.4438717 77.5431641,25.3977779 C78.7177734,27.0081295 80.4417969,28.1069576 82.3931641,28.5237545 L82.3931641,61.0149654 L76.1980469,61.0149654 L76.1980469,61.0339107 Z M68.1083984,51.3339107 L74.1519531,51.3339107 L72.9394531,61.0339107 L69.3208984,61.0339107 L68.1083984,51.3339107 Z M30.7103516,41.6339107 L21.0103516,41.6339107 L21.0103516,38.3942623 L33.95,38.3942623 L33.95,41.6339107 L30.7103516,41.6339107 Z M25.8603516,44.8546139 L29.1,44.8546139 L29.1,51.3149654 L25.8603516,51.3149654 L25.8603516,44.8546139 Z M24.25,54.5546139 L50.1103516,54.5546139 L50.1103516,61.0149654 L21.0103516,61.0149654 L21.0103516,54.5546139 L24.25,54.5546139 Z M75.9896484,20.6046139 C75.9896484,23.2759029 73.8109375,25.4546139 71.1396484,25.4546139 L64.6792969,25.4546139 C62.0080078,25.4546139 59.8292969,23.2759029 59.8292969,20.6046139 L75.9896484,20.6046139 Z M56.5896484,20.6046139 C56.5896484,23.2759029 54.4109375,25.4546139 51.7396484,25.4546139 L45.2792969,25.4546139 C42.6080078,25.4546139 40.4292969,23.2759029 40.4292969,20.6046139 L56.5896484,20.6046139 Z M21.0103516,20.6046139 L37.1707031,20.6046139 C37.1707031,23.2759029 34.9919922,25.4546139 32.3207031,25.4546139 L25.8603516,25.4546139 C23.1890625,25.4546139 21.0103516,23.2948482 21.0103516,20.6046139 Z M11.9355469,5.82727011 C13.1101563,3.97062948 15.1751953,2.83391073 17.3728516,2.83391073 L79.6460938,2.83391073 C81.8626953,2.83391073 83.9087891,3.97062948 85.0833984,5.82727011 L92.4341797,17.3839107 L78.6988281,17.3839107 L75.8759766,10.3173092 C75.5349609,9.48371542 74.6066406,9.08586386 73.7730469,9.40793417 C72.9394531,9.7489498 72.5416016,10.6772701 72.8636719,11.5108639 L75.2128906,17.3839107 L59.8103516,17.3839107 L59.8103516,14.1442623 C59.8103516,13.2538326 59.0904297,12.5339107 58.2,12.5339107 C57.3095703,12.5339107 56.5896484,13.2538326 56.5896484,14.1442623 L56.5896484,17.3839107 L40.4292969,17.3839107 L40.4292969,14.1442623 C40.4292969,13.2538326 39.709375,12.5339107 38.8189453,12.5339107 C37.9285156,12.5339107 37.2085937,13.2538326 37.2085937,14.1442623 L37.2085937,17.3839107 L21.7871094,17.3839107 L24.1363281,11.5108639 C24.3447266,10.9803951 24.2689453,10.3551998 23.9089844,9.9005123 C23.5490234,9.4458248 22.9806641,9.21848105 22.4123047,9.2942623 C21.8439453,9.37004355 21.3513672,9.7489498 21.1429688,10.2983639 L18.3011719,17.3839107 L4.56582031,17.3839107 L11.9355469,5.82727011 Z M3.23964844,20.6046139 L17.7896484,20.6046139 C17.7896484,23.2759029 15.6109375,25.4546139 12.9396484,25.4546139 L8.08964844,25.4546139 C6.80136719,25.4546139 5.56992188,24.9430904 4.66054688,24.0337154 C3.75117188,23.1243404 3.23964844,21.8928951 3.23964844,20.6046139 Z M8.08964844,28.6942623 L11.3292969,28.6942623 L11.3292969,61.0339107 L8.08964844,61.0339107 L8.08964844,28.6942623 Z M90.5396484,86.8942623 L6.46035156,86.8942623 L6.46035156,70.7339107 L90.5207031,70.7339107 L90.5207031,86.8942623 L90.5396484,86.8942623 Z M92.15,93.3546139 L4.85,93.3546139 C3.95957031,93.3546139 3.23964844,92.634692 3.23964844,91.7442623 C3.23964844,90.8538326 3.95957031,90.1339107 4.85,90.1339107 L92.15,90.1339107 C93.0404297,90.1339107 93.7603516,90.8538326 93.7603516,91.7442623 C93.7603516,92.634692 93.0404297,93.3546139 92.15,93.3546139 Z M93.7603516,65.8839107 C93.7603516,66.7743404 93.0404297,67.4942623 92.15,67.4942623 L4.85,67.4942623 C3.95957031,67.4942623 3.23964844,66.7743404 3.23964844,65.8839107 C3.23964844,64.993481 3.95957031,64.2735592 4.85,64.2735592 L92.15,64.2735592 C93.0404297,64.2546139 93.7603516,64.993481 93.7603516,65.8839107 Z M88.9103516,61.0339107 L85.6707031,61.0339107 L85.6707031,28.6942623 L88.9103516,28.6942623 L88.9103516,61.0339107 Z" id="Shape"></path>
            </g>
        </g>
    </g>
</svg>
